X: 1425
T:Gan Ainm
R:Reel
S:Tulla Ceilidh Band, Clare
D:Tulla Ceilidh Band, 'Ireland Green' (label missing)
Z:Bernie Stocks
M:4/4
K:G
|: c2Bc AGEF | G2BG dGed | c2Bc AGEG | AcBc A3B :| c3d eg~g2 | eaag eged |
c3d eg~g2 | eaag a2ed | c3d eg~g2 | eaag eged | c2Bc AGEG | AcBc A3B ||
